svg/u1f451.svg

<svg viewBox="0 0 128 128" xmlns="http://www.w3.org/2000/svg">
  <g>
    <path d="M94.52,21.81c2.44-1.18,4.13-3.67,4.13-6.56c0-4.02-3.26-7.28-7.28-7.28 c-4.02,0-7.28,3.26-7.28,7.28c0,2.93,1.73,5.44,4.22,6.6c-2.88,15.6-7.3,27.21-23.75,29.69c0,0,4.43,22.15,25.15,22.15 s22.82-21.93,22.82-21.93C95.72,52.62,94.3,31.49,94.52,21.81z" fill="#F19534"/>
    <path d="M34.74,21.81c-2.44-1.18-4.13-3.67-4.13-6.56c0-4.02,3.26-7.28,7.28-7.28 c4.02,0,7.28,3.26,7.28,7.28c0,2.93-1.73,5.44-4.22,6.6c2.88,15.6,7.3,27.21,23.75,29.69c0,0-4.43,22.15-25.15,22.15 S16.74,51.77,16.74,51.77C33.54,52.62,34.96,31.49,34.74,21.81z" fill="#F19534"/>
    <path d="M89.43,73.69c0.09,0,0.18,0.01,0.27,0.01c5.71,0,10-1.67,13.22-4.08L89.43,73.69z" fill="#FFCA28"/>
    <path d="M119.24,16.86c-3.33-0.45-6.51,2.72-7.09,7.06c-0.36,2.71,0.37,5.24,1.78,6.87l-2.4,9.95 c0,0-3.67,23.51-22.21,28.15c-14.82,3.71-20.19-23.42-21.49-31.8c2.82-1.4,4.77-4.3,4.77-7.67c0-4.73-3.83-8.56-8.56-8.56 s-8.56,3.83-8.56,8.56c0,3.39,1.98,6.32,4.85,7.7c-1.03,8.27-5.57,34.5-21.57,31.76C22.52,66.09,15.43,38.74,13.79,31.3 c1.95-1.6,3.04-4.42,2.64-7.45c-0.58-4.35-4.02-7.47-7.68-6.98c-3.66,0.49-6.15,4.41-5.57,8.75c0.42,3.16,2.36,5.67,4.79,6.62 l12.72,79.03c0,0,11.1,8.77,43.35,8.77s43.35-8.77,43.35-8.77l12.75-79.24c2.06-1.08,3.68-3.51,4.08-6.49 C124.81,21.19,122.58,17.31,119.24,16.86z" fill="#FFCA28"/>
    <ellipse cx="64.44" cy="88.3" rx="9.74" ry="11.61" fill="#26A69A"/>
    <path d="M64.44,79.56c0.38,0.42,0.72,1.19,0,2.69c-0.72,1.5-4.6,3.53-5.31,3.94 c-0.71,0.42-1.18,0.23-1.4,0.06c-1.05-0.84-0.65-2.74,0.03-3.9C59.22,79.84,62.31,77.25,64.44,79.56z" fill="#69F0AE"/>
    <path d="M63.72,92.63c-1.1,0.53-4.71,2.14-3.52,4.05c0.7,1.13,2.15,1.61,3.48,1.67 c1.33,0.06,2.64-0.36,3.82-0.97c5.6-2.9,6.05-10.52,4.96-11.1c-1.12-0.6-1.88,0.95-2.46,1.61C68.25,89.86,66.09,91.48,63.72,92.63z " fill="#00796B"/>
    <path d="M118.09,78.8c1.56-8.63-4.24-10.79-4.24-10.79s-3.74-0.68-5.5,9.03c-1.76,9.7,1.98,10.38,1.98,10.38 S116.52,87.43,118.09,78.8z" fill="#26A69A"/>
    <path d="M115.51,70.96c1.36,1.82-0.25,4.51-2.86,6.3c-0.77,0.53-1.79,0.33-1.94-0.11 c-0.42-1.26-0.24-2.69,0.32-3.9C112.69,69.62,114.82,70.04,115.51,70.96z" fill="#69F0AE"/>
    <path d="M9.76,79.06C8.19,70.44,14,68.27,14,68.27s3.74-0.68,5.5,9.03c1.76,9.7-1.98,10.38-1.98,10.38 S11.32,87.69,9.76,79.06z" fill="#26A69A"/>
    <path d="M15.78,71.2c1.34,1,0.79,2.31-0.22,3.22c-1.15,1.05-2.03,2.2-3.01,3.39 c-0.15,0.18-0.32,0.38-0.56,0.43c-0.46,0.1-0.83-0.37-0.98-0.82c-0.43-1.26-0.35-2.74,0.29-3.9C13.12,70.21,15.26,70.81,15.78,71.2 z" fill="#69F0AE"/>
    <path d="M99.99,87.16c-0.69,3.93-3.84,6.66-7.05,6.1c-3.21-0.56-3.65-3.91-2.96-7.84 c0.69-3.93,2.24-6.94,5.44-6.38C98.63,79.6,100.68,83.24,99.99,87.16z" fill="#F44336"/>
    <path d="M30.43,87.16c0.69,3.93,3.84,6.66,7.05,6.1s3.65-3.91,2.96-7.84c-0.69-3.93-2.24-6.94-5.44-6.38 S29.75,83.24,30.43,87.16z" fill="#F44336"/>
    <path d="M35.08,84.54c-0.73,0.82-2.51,2.47-3.14,1.21c-0.86-1.72,0.33-4.32,1.69-5.18 c1.36-0.86,2.47-0.18,2.66,0.59C36.52,82.14,35.73,83.8,35.08,84.54z" fill="#FFA8A4"/>
    <path d="M91.98,87.05c-0.99-0.15-1.1-3.56,1.56-6.24c1.27-1.28,3.09,0.24,2.63,2.29 C95.73,85.05,93.79,87.33,91.98,87.05z" fill="#FFA8A4"/>
    <path d="M109.15,98.21c-5.99,3-19.73,10.99-45.1,10.99s-39.11-7.99-45.1-10.99c0,0-2.15,1.15-2.15,2.35v9.21 c0,1.23,0.65,2.36,1.71,2.99c4.68,2.76,18.94,9.28,45.55,9.28s40.87-6.52,45.55-9.28c1.06-0.63,1.71-1.76,1.71-2.99v-9.21 C111.3,99.36,109.15,98.21,109.15,98.21z" fill="#FFCA28"/>
    <path d="M39.6,110.84c2.8,0.55,3.65,0.79,3.46,2.35c-0.39,3.07-6.76,2.34-10.53,1.35 c-7.79-2.05-9.37-4.21-9.37-6.14c0-1.77,1.36-1.98,3.46-1.24C29.13,108.05,33.01,109.55,39.6,110.84z" fill="#FFF59D"/>
    <path d="M109.15,100.23 c0,0-16.57,9.38-45.1,9.38s-45.1-9.38-45.1-9.38" fill="none" stroke="#F19534" stroke-width="4" stroke-linecap="round" stroke-miterlimit="10"/>
    <path d="M26.97,49.57c5.32-3.8,8.18-10.61,8.43-21.45c0.02-0.98,0.3-1.27,0.83-1.33 c0.85-0.09,0.99,0.68,0.98,1.23c-0.24,11.7-1.73,19.01-7.63,23.13c-0.29,0.2-2.36,1.46-3.24,0.59 C25.29,50.72,26.63,49.81,26.97,49.57z" fill="#FFCA28"/>
    <path d="M31.84,15.54c-0.17-1.81,0.25-5.07,5-6.55c1.39-0.43,2.25,0.25,2.41,0.78 c0.4,1.32-0.76,1.84-1.29,2.01c-3.65,1.18-3.83,3-4.58,4.16S31.9,16.09,31.84,15.54z" fill="#FFCA28"/>
    <path d="M78.22,47.17c4.81-4.27,8-9.04,10.1-19.9c0.19-0.96,0.47-1.22,0.99-1.2 c0.85,0.02,0.89,0.81,0.8,1.35C88.33,39,86.64,42.3,80.71,48.87c-0.67,0.74-2.3,1.41-3.22,0.64 C76.66,48.82,77.62,47.71,78.22,47.17z" fill="#FFCA28"/>
    <path d="M85.3,15.63c-0.17-1.81,0.25-5.07,5-6.55c1.39-0.43,2.25,0.25,2.41,0.78 c0.4,1.32-0.76,1.84-1.29,2.01c-3.65,1.18-3.83,3-4.58,4.16C86.1,17.19,85.36,16.18,85.3,15.63z" fill="#FFCA28"/>
    <path d="M31.59,71.62C19.97,66.35,16.55,52.6,14.73,46.63c-0.24-0.79-0.12-1.54,0.67-1.78 c0.79-0.24,1.26,0.27,1.51,1.06c1.32,4.33,6.45,18.79,17.04,22.9c0.77,0.3,1.97,1.03,1.32,2.28C34.84,71.9,33.46,72.47,31.59,71.62 z" fill="#FFF59D"/>
    <path d="M12.68,24.63c-0.56-1.16-0.79-2.26-3.84-3.53c-0.77-0.32-1.28-1.03-1.07-1.83s1.01-1.4,2.17-1.2 c3.77,0.65,4.59,4.48,4.75,5.81C14.84,25.16,13.25,25.79,12.68,24.63z" fill="#FFF59D"/>
    <path d="M96.87,71.62c11.62-5.27,15.04-19.02,16.86-24.99c0.24-0.79,0.12-1.54-0.67-1.78 c-0.79-0.24-1.26,0.27-1.51,1.06c-1.32,4.33-6.45,18.79-17.04,22.9c-0.77,0.3-1.97,1.03-1.32,2.28C93.62,71.9,95,72.47,96.87,71.62 z" fill="#FFF59D"/>
    <path d="M115.78,24.63c0.56-1.16,0.79-2.26,3.84-3.53c0.77-0.32,1.28-1.03,1.07-1.83s-1.01-1.4-2.17-1.2 c-3.77,0.65-4.59,4.48-4.75,5.81C113.62,25.16,115.22,25.79,115.78,24.63z" fill="#FFF59D"/>
    <path d="M59.38,29.55c0.61-1.25,1.68-2.96,5.17-3.68c1.34-0.28,1.73-0.86,1.61-1.74 c-0.24-1.83-2.52-1.7-3.75-1.41c-4.1,0.96-5.01,4.6-5.18,6.04C57.06,30.13,58.78,30.8,59.38,29.55z" fill="#FFF59D"/>
  </g>
</svg>

<svg viewBox="0 0 128 128" xmlns="http://www.w3.org/2000/svg">
  <defs/>
  <path d="M94.52,21.81 C96.96,20.63 98.65,18.14 98.65,15.25 C98.65,11.23 95.39,7.97 91.37,7.97 C87.35,7.97 84.09,11.23 84.09,15.25 C84.09,18.18 85.82,20.69 88.31,21.85 C85.43,37.45 81.01,49.06 64.56,51.54 C64.56,51.54 68.99,73.69 89.71,73.69 C110.43,73.69 112.53,51.76 112.53,51.76 C95.72,52.62 94.3,31.49 94.52,21.81 Z" fill="#F19534"/>
  <path d="M34.74,21.81 C32.3,20.63 30.61,18.14 30.61,15.25 C30.61,11.23 33.87,7.97 37.89,7.97 C41.91,7.97 45.17,11.23 45.17,15.25 C45.17,18.18 43.44,20.69 40.95,21.85 C43.83,37.45 48.25,49.06 64.7,51.54 C64.7,51.54 60.27,73.69 39.55,73.69 C18.83,73.69 16.74,51.77 16.74,51.77 C33.54,52.62 34.96,31.49 34.74,21.81 Z" fill="#F19534"/>
  <path d="M89.43,73.69 C89.52,73.69 89.61,73.7 89.7,73.7 C95.41,73.7 99.7,72.03 102.92,69.62 L89.43,73.69 Z" fill="#FFCA28"/>
  <path d="M119.24,16.86 C115.91,16.41 112.73,19.58 112.15,23.92 C111.79,26.63 112.52,29.16 113.93,30.79 L111.53,40.74 C111.53,40.74 107.86,64.25 89.32,68.89 C74.5,72.6 69.13,45.47 67.83,37.09 C70.65,35.69 72.6,32.79 72.6,29.42 C72.6,24.69 68.77,20.86 64.04,20.86 C59.31,20.86 55.48,24.69 55.48,29.42 C55.48,32.81 57.46,35.74 60.33,37.12 C59.3,45.39 54.76,71.62 38.76,68.88 C22.52,66.09 15.43,38.74 13.79,31.3 C15.74,29.7 16.83,26.88 16.43,23.85 C15.85,19.5 12.41,16.38 8.75,16.87 C5.09,17.36 2.6,21.28 3.18,25.62 C3.6,28.78 5.54,31.29 7.97,32.24 L20.69,111.27 C20.69,111.27 31.79,120.04 64.04,120.04 C96.29,120.04 107.39,111.27 107.39,111.27 L120.14,32.03 C122.2,30.95 123.82,28.52 124.22,25.54 C124.81,21.19 122.58,17.31 119.24,16.86 Z" fill="#FFCA28"/>
  <path d="M74.18,88.3 A9.74 11.61 0 1 1 54.7,88.3 A9.74 11.61 0 1 1 74.18,88.3 Z" fill="#26A69A"/>
  <path d="M64.44,79.56 C64.82,79.98 65.16,80.75 64.44,82.25 C63.72,83.75 59.84,85.78 59.13,86.19 C58.42,86.61 57.95,86.42 57.73,86.25 C56.68,85.41 57.08,83.51 57.76,82.35 C59.22,79.84 62.31,77.25 64.44,79.56 Z" fill="#69F0AE"/>
  <path d="M63.72,92.63 C62.62,93.16 59.01,94.77 60.2,96.68 C60.9,97.81 62.35,98.29 63.68,98.35 C65.01,98.41 66.32,97.99 67.5,97.38 C73.1,94.48 73.55,86.86 72.46,86.28 C71.34,85.68 70.58,87.23 70,87.89 C68.25,89.86 66.09,91.48 63.72,92.63 Z" fill="#00796B"/>
  <path d="M118.09,78.8 C119.65,70.17 113.85,68.01 113.85,68.01 C113.85,68.01 110.11,67.33 108.35,77.04 C106.59,86.74 110.33,87.42 110.33,87.42 C110.33,87.42 116.52,87.43 118.09,78.8 Z" fill="#26A69A"/>
  <path d="M115.51,70.96 C116.87,72.78 115.26,75.47 112.65,77.26 C111.88,77.79 110.86,77.59 110.71,77.15 C110.29,75.89 110.47,74.46 111.03,73.25 C112.69,69.62 114.82,70.04 115.51,70.96 Z" fill="#69F0AE"/>
  <path d="M9.76,79.06 C8.19,70.44 14,68.27 14,68.27 C14,68.27 17.74,67.59 19.5,77.3 C21.26,87 17.52,87.68 17.52,87.68 C17.52,87.68 11.32,87.69 9.76,79.06 Z" fill="#26A69A"/>
  <path d="M15.78,71.2 C17.12,72.2 16.57,73.51 15.56,74.42 C14.41,75.47 13.53,76.62 12.55,77.81 C12.4,77.99 12.23,78.19 11.99,78.24 C11.53,78.34 11.16,77.87 11.01,77.42 C10.58,76.16 10.66,74.68 11.3,73.52 C13.12,70.21 15.26,70.81 15.78,71.2 Z" fill="#69F0AE"/>
  <path d="M99.99,87.16 C99.3,91.09 96.15,93.82 92.94,93.26 C89.73,92.7 89.29,89.35 89.98,85.42 C90.67,81.49 92.22,78.48 95.42,79.04 C98.63,79.6 100.68,83.24 99.99,87.16 Z" fill="#F44336"/>
  <path d="M30.43,87.16 C31.12,91.09 34.27,93.82 37.48,93.26 C40.69,92.7 41.13,89.35 40.44,85.42 C39.75,81.49 38.2,78.48 35,79.04 C31.8,79.6 29.75,83.24 30.43,87.16 Z" fill="#F44336"/>
  <path d="M35.08,84.54 C34.35,85.36 32.57,87.01 31.94,85.75 C31.08,84.03 32.27,81.43 33.63,80.57 C34.99,79.71 36.1,80.39 36.29,81.16 C36.52,82.14 35.73,83.8 35.08,84.54 Z" fill="#FFA8A4"/>
  <path d="M91.98,87.05 C90.99,86.9 90.88,83.49 93.54,80.81 C94.81,79.53 96.63,81.05 96.17,83.1 C95.73,85.05 93.79,87.33 91.98,87.05 Z" fill="#FFA8A4"/>
  <path d="M109.15,98.21 C103.16,101.21 89.42,109.2 64.05,109.2 C38.68,109.2 24.94,101.21 18.95,98.21 C18.95,98.21 16.8,99.36 16.8,100.56 L16.8,109.77 C16.8,111 17.45,112.13 18.51,112.76 C23.19,115.52 37.45,122.04 64.06,122.04 C90.67,122.04 104.93,115.52 109.61,112.76 C110.67,112.13 111.32,111 111.32,109.77 L111.32,100.56 C111.3,99.36 109.15,98.21 109.15,98.21 Z" fill="#FFCA28"/>
  <path d="M39.6,110.84 C42.4,111.39 43.25,111.63 43.06,113.19 C42.67,116.26 36.3,115.53 32.53,114.54 C24.74,112.49 23.16,110.33 23.16,108.4 C23.16,106.63 24.52,106.42 26.62,107.16 C29.13,108.05 33.01,109.55 39.6,110.84 Z" fill="#FFF59D"/>
  <path d="M110.135,101.97 Q105.801,104.424 97.881,106.833 Q82.179,111.61 64.05,111.61 Q45.921,111.61 30.219,106.833 Q22.299,104.424 17.965,101.97 Q16.224,100.985 17.21,99.245 Q17.702,98.375 18.384,98.186 Q19.065,97.997 19.935,98.49 Q23.886,100.726 31.383,103.007 Q46.516,107.61 64.05,107.61 Q81.584,107.61 96.717,103.007 Q104.214,100.726 108.165,98.49 Q109.905,97.504 110.89,99.245 Q111.876,100.985 110.135,101.97 Z" fill="#F19534"/>
  <path d="M26.97,49.57 C32.29,45.77 35.15,38.96 35.4,28.12 C35.42,27.14 35.7,26.85 36.23,26.79 C37.08,26.7 37.22,27.47 37.21,28.02 C36.97,39.72 35.48,47.03 29.58,51.15 C29.29,51.35 27.22,52.61 26.34,51.74 C25.29,50.72 26.63,49.81 26.97,49.57 Z" fill="#FFCA28"/>
  <path d="M31.84,15.54 C31.67,13.73 32.09,10.47 36.84,8.99 C38.23,8.56 39.09,9.24 39.25,9.77 C39.65,11.09 38.49,11.61 37.96,11.78 C34.31,12.96 34.13,14.78 33.38,15.94 C32.63,17.1 31.9,16.09 31.84,15.54 Z" fill="#FFCA28"/>
  <path d="M78.22,47.17 C83.03,42.9 86.22,38.13 88.32,27.27 C88.51,26.31 88.79,26.05 89.31,26.07 C90.16,26.09 90.2,26.88 90.11,27.42 C88.33,39 86.64,42.3 80.71,48.87 C80.04,49.61 78.41,50.28 77.49,49.51 C76.66,48.82 77.62,47.71 78.22,47.17 Z" fill="#FFCA28"/>
  <path d="M85.3,15.63 C85.13,13.82 85.55,10.56 90.3,9.08 C91.69,8.65 92.55,9.33 92.71,9.86 C93.11,11.18 91.95,11.7 91.42,11.87 C87.77,13.05 87.59,14.87 86.84,16.03 C86.1,17.19 85.36,16.18 85.3,15.63 Z" fill="#FFCA28"/>
  <path d="M31.59,71.62 C19.97,66.35 16.55,52.6 14.73,46.63 C14.49,45.84 14.61,45.09 15.4,44.85 C16.19,44.61 16.66,45.12 16.91,45.91 C18.23,50.24 23.36,64.7 33.95,68.81 C34.72,69.11 35.92,69.84 35.27,71.09 C34.84,71.9 33.46,72.47 31.59,71.62 Z" fill="#FFF59D"/>
  <path d="M12.68,24.63 C12.12,23.47 11.89,22.37 8.84,21.1 C8.07,20.78 7.56,20.07 7.77,19.27 C7.98,18.47 8.78,17.87 9.94,18.07 C13.71,18.72 14.53,22.55 14.69,23.88 C14.84,25.16 13.25,25.79 12.68,24.63 Z" fill="#FFF59D"/>
  <path d="M96.87,71.62 C108.49,66.35 111.91,52.6 113.73,46.63 C113.97,45.84 113.85,45.09 113.06,44.85 C112.27,44.61 111.8,45.12 111.55,45.91 C110.23,50.24 105.1,64.7 94.51,68.81 C93.74,69.11 92.54,69.84 93.19,71.09 C93.62,71.9 95,72.47 96.87,71.62 Z" fill="#FFF59D"/>
  <path d="M115.78,24.63 C116.34,23.47 116.57,22.37 119.62,21.1 C120.39,20.78 120.9,20.07 120.69,19.27 C120.48,18.47 119.68,17.87 118.52,18.07 C114.75,18.72 113.93,22.55 113.77,23.88 C113.62,25.16 115.22,25.79 115.78,24.63 Z" fill="#FFF59D"/>
  <path d="M59.38,29.55 C59.99,28.3 61.06,26.59 64.55,25.87 C65.89,25.59 66.28,25.01 66.16,24.13 C65.92,22.3 63.64,22.43 62.41,22.72 C58.31,23.68 57.4,27.32 57.23,28.76 C57.06,30.13 58.78,30.8 59.38,29.55 Z" fill="#FFF59D"/>
</svg>
